static/logos/ada-glyph-color.svg

<svg width="50" height="50" viewBox="0 0 50 50" fill="none" xmlns="http://www.w3.org/2000/svg">
<g clip-path="url(#clip0_1_3626)">
<path d="M12.7221 41.5736C12.3676 41.6138 12.0365 41.7704 11.7809 42.0192C11.5292 42.2647 11.3698 42.5892 11.3294 42.9383C11.3294 42.9604 11.3294 42.9825 11.3265 43.006V42.9839C11.3227 43.025 11.3208 43.0663 11.3206 43.1075V47.7457C11.3208 47.95 11.2795 48.1523 11.1991 48.3401C11.1187 48.5279 11.0009 48.6975 10.8529 48.8383C10.552 49.1308 10.1476 49.2926 9.72794 49.2883H1.59118C1.37932 49.2882 1.16952 49.2467 0.973529 49.1663C0.687407 49.0501 0.441522 48.8528 0.266176 48.5986C0.0937878 48.3475 0.00103375 48.0503 0 47.7457V24.1501C0.00441176 16.6913 3.51765 10.0339 9.02353 5.65011L9.02794 5.6457C9.12941 5.56629 9.22941 5.48688 9.33088 5.4104L9.34853 5.3957C9.55147 5.23982 9.75735 5.08688 9.96618 4.93982L10.0191 4.90011L10.2985 4.70305L10.3279 4.68246C10.4309 4.6104 10.5338 4.54129 10.6382 4.4707L10.6941 4.43393L10.95 4.26188L11.0265 4.21335C11.2853 4.04717 11.5471 3.8854 11.8118 3.72805L11.8235 3.7207C11.9794 3.62658 12.1397 3.53393 12.3029 3.44423L12.3162 3.43688C12.4779 3.3457 12.6426 3.25599 12.8074 3.16776L12.8132 3.16482C15.0193 1.99368 17.3888 1.16132 19.8426 0.695693H19.85L20.1147 0.647164L20.1471 0.641281L20.3941 0.597164L20.4456 0.589811L20.6809 0.553046L20.7485 0.542752L20.9691 0.510399L21.0515 0.498634C21.1215 0.488267 21.1916 0.478462 21.2618 0.469222L21.3529 0.457458L21.5559 0.432458L21.6588 0.420693L21.85 0.398634L21.9647 0.38687L22.1456 0.369222L22.2691 0.357458L22.4456 0.342752L22.5779 0.332458L22.7485 0.317752L22.8882 0.308928L23.0515 0.298634L23.2015 0.289811L23.3574 0.282458L23.5176 0.275105L23.6647 0.269222L23.8412 0.26334L23.9735 0.260399L24.175 0.254517H24.5941C38.1824 0.254517 49.1823 10.9545 49.1868 24.1545V47.7457C49.1872 47.95 49.1462 48.152 49.066 48.34C48.9859 48.5278 48.8684 48.6973 48.7206 48.8383C48.4196 49.1308 48.0153 49.2926 47.5956 49.2883H39.4588C39.0382 49.2883 38.6338 49.1266 38.3353 48.8369C38.1884 48.6955 38.0713 48.5261 37.9909 48.3386C37.9106 48.1513 37.8687 47.9497 37.8676 47.7457V43.1031C37.8676 42.6942 37.6985 42.3016 37.4 42.0119C37.0984 41.7211 36.6954 41.5592 36.2765 41.5604H24.5941L12.7221 41.5722V41.5736ZM37.8691 23.1648C37.8691 16.0428 31.925 10.2692 24.5941 10.2692C23.4763 10.2695 22.3626 10.4063 21.2779 10.6766C19.3037 11.1691 17.4679 12.1056 15.9103 13.4148C14.4767 14.6154 13.3211 16.1132 12.5235 17.8045C11.7338 19.4816 11.325 21.3126 11.3265 23.1663C11.3265 30.2883 17.2632 36.0604 24.5912 36.0604C31.925 36.0604 37.8676 30.2883 37.8676 23.1648H37.8691Z" fill="#171A1E"/>
</g>
<defs>
<clipPath id="clip0_1_3626">
<rect width="50" height="50" fill="white"/>
</clipPath>
</defs>
</svg>

<svg xmlns="http://www.w3.org/2000/svg" width="64" height="64" fill="none" viewBox="0 0 50 50"><g clip-path="url(#a)"><path fill="#171A1E" d="M12.722 41.574a1.61 1.61 0 0 0-.941.445 1.53 1.53 0 0 0-.452.92c0 .021 0 .044-.003.067v-.022a1.418 1.418 0 0 0-.005.123v4.639a1.507 1.507 0 0 1-.468 1.092 1.59 1.59 0 0 1-1.125.45H1.59a1.63 1.63 0 0 1-.617-.122 1.583 1.583 0 0 1-.708-.567A1.516 1.516 0 0 1 0 47.746V24.15c.004-7.459 3.518-14.116 9.024-18.5l.004-.004c.101-.08.201-.16.303-.236l.018-.014c.202-.156.408-.31.617-.456l.053-.04.28-.197.029-.02c.103-.073.206-.142.31-.212l.056-.037.256-.172.077-.049c.258-.166.52-.328.785-.485l.011-.007c.156-.094.317-.187.48-.277l.013-.007c.162-.091.327-.181.491-.27l.006-.002a24.886 24.886 0 0 1 7.03-2.47h.007l.265-.048.032-.006.247-.044.052-.007.235-.037.067-.01.221-.033.082-.011.21-.03.092-.012.203-.025.103-.011.191-.022.115-.012.18-.018.124-.012.177-.014.132-.01.17-.015.14-.01.163-.01.15-.008.156-.008.16-.007.148-.006.176-.006.133-.003.201-.005h.42c13.587 0 24.587 10.7 24.592 23.9v23.59a1.506 1.506 0 0 1-.466 1.093 1.59 1.59 0 0 1-1.125.45h-8.137c-.42 0-.825-.161-1.124-.451a1.527 1.527 0 0 1-.467-1.091v-4.643c0-.409-.17-.801-.468-1.091a1.612 1.612 0 0 0-1.123-.452H24.593l-11.872.012v.002Zm25.147-18.41c0-7.121-5.944-12.895-13.275-12.895a13.73 13.73 0 0 0-3.316.408 13.373 13.373 0 0 0-5.368 2.738 12.906 12.906 0 0 0-3.386 4.39 12.562 12.562 0 0 0-1.197 5.361c0 7.122 5.936 12.894 13.264 12.894 7.334 0 13.277-5.772 13.277-12.895h.001Z"/></g><defs><clipPath id="a"><path fill="#fff" d="M0 0h50v50H0z"/></clipPath></defs></svg>
